resources/svg/ezmeral.svg

<svg viewBox="0 0 24 24"><g fill="none"><path d="M7 8h34v8H7V8z" fill="#01A982"/><path d="M1 8h6v8H1V8z" fill="#00775B"/><path d="M41 8h6v8h-6V8z" fill="#00775B"/><path d="M7 16h34v6H7v-6z" fill="#00775B"/><path d="M7 2h34v6H7V2z" fill="#00C781"/><path d="M1 8l6-6v6H1z" fill="#01A982"/><path d="M1 16l6 6v-6H1z" fill="#01A982"/><path d="M47 8l-6-6v6h6z" fill="#01A982"/><path d="M47 16l-6 6v-6h6z" fill="#01A982"/></g></svg>

<svg xmlns="http://www.w3.org/2000/svg" viewBox="0 0 48 24" fill="currentColor"><path d="M7 8H41V16H7V8Z" fill="currentColor"/><path d="M1 8H7V16H1V8Z" fill="currentColor"/><path d="M41 8H47V16H41V8Z" fill="currentColor"/><path d="M7 16H41V22H7V16Z" fill="currentColor"/><path d="M7 2H41V8H7V2Z" fill="currentColor"/><path d="M1 8L7 2V8H1Z" fill="currentColor"/><path d="M1 16L7 22V16H1Z" fill="currentColor"/><path d="M47 8L41 2V8H47Z" fill="currentColor"/><path d="M47 16L41 22V16H47Z" fill="currentColor"/></svg>
